X:1
T:Title
%%score { ( 1 4 ) | ( 2 3 ) }
L:1/8
M:4/4
K:A
V:1 treble nm="Grand Piano"
V:4 treble 
V:2 bass 
V:3 bass 
V:1
 z4 z2[Q:1/4=76] [CE]2 | [Ec]3 [^D=c] [Fd]^c A>F | [CE]6[K:treble] z2 | G6 z2 | A6 z2 | %5
 [Ec]3 [^D=c] [Fd]^cAF | [CE]6[K:treble] z2 | G2- [B,EG]2 [EB][EG][^DG][DF] |[M:3/4] E6 | %9
[M:1/4] E2 |[M:4/4] d4 z4 | c6 z2 | B4[K:bass][K:treble] z4 |[M:3/4] [GB]6 |[M:1/4] [EB]2 | %15
[M:4/4] [Ee]3 [Ed] [Ec][DB][CA]E | A,2 A,2 [FA]dAB | c4 z4 |[M:3/4] [CA]6 |] %19
V:2
 z4 z2 [A,,A,]2 | [A,,A,]4 z E C>D | A,,A,,A,,A,, .A,,2 z2 | z [E,B,][E,B,][E,B,] .[E,B,]2 z2 | %4
 z [A,,A,][A,,G,][A,,F,] [A,,E,]2 [A,,A,]2 | [A,,A,]4 z ECD | A,,A,,A,,A,, .A,,2 A,,2 | %7
 B,,2 z[K:treble] c[K:bass] [B,,G,][B,,B,][B,,B,][B,,A,] |[M:3/4] [E,G,]6 |[M:1/4] z2 | %10
[M:4/4] z [E,B,][E,B,][E,A,E] [E,E]-[E,=G,E] .[E,^G,E]2 | [A,,A,]2 [A,,A,]2 [A,,A,]2[K:treble] A2 | %12
 G4[K:bass] z4 |[M:3/4] [E,E]2 E,2 E,2 |[M:1/4] [D,G,]2 |[M:4/4] [C,A,]3 [B,,G,] [A,,A,]2 z C | %16
 D,2 D,2 .[D,A,]2 z2 | z [E,A,][E,A,][E,A,C] [E,G,D]3 [E,D] |[M:3/4] [A,,E,]6 |] %19
V:3
 x8 | z4 [A,,A,]4 | x8 | x8 | x8 | z4 [A,,A,]4 | x8 | z2 B,,2[K:treble][K:bass] z4 |[M:3/4] x6 | %9
[M:1/4] x2 |[M:4/4] z4 .G,2 z2 | x6[K:treble] x2 | z2[K:bass] E,[E,E] [E,E]2 [E,E]2 |[M:3/4] x6 | %14
[M:1/4] x2 |[M:4/4] z4 z2 [A,,A,]2 | x8 | x8 |[M:3/4] x6 |] %19
V:4
 x8 | x8 | A,A,A,A, A,[K:treble]EFE | z DDD DEFE | z FED C2 [CE]2 | x8 | %6
 A,A,A,A, .A,2[K:treble] [CEF]2 | [B,E]2 z2 z4 |[M:3/4] x6 |[M:1/4] x2 |[M:4/4] z GGc B^ABE | %11
 E2 E2 E2 c2 | z[K:bass] E,E[K:treble][=G^A] [^GB][=Ac][Bd][Ac] |[M:3/4] z2 E2 E2 |[M:1/4] x2 | %15
[M:4/4] x8 | [DF]4 z4 | z EEE B3 A |[M:3/4] x6 |] %19

